X: 22915
T: Larry Grogan's
R: jig
M: 6/8
K: Gmajor
B/A/|G>AB BAB|g>fe/d/ B2 B/A/|G>AB/c/ dcB|AGA B2 B/A/|
G>AB BAB|g/f/e/f/g/e/ d>cB/A/|G>AB/c/ dBc/B/|AGG G2||
g/a/|b>ag a>gf|ge/f/g/e/ d2 B/d/|g>fg agf|gee e2 g/a/|
b>ag a>gf|g/f/e/f/g/e/ d>cB/A/|G>AB/c/ dBc/B/|AGG G2||

